X: 1818
T: Ard Rí
R: reel
M: 4/4
K: Gmajor
dc|:Bd AB G2 gf|eg dB A2 BA|GF GA Bd gf|eg dB d2 gf|
eg de B2 AB|GA FD E2 DE|G2 g2 Bc BA|1 G4 G2 dc:|2 G4 G2 gf|:
ed e/f/g a2 ba|ga fd B2 gf|ed e/f/g a2 e'd'|bc' ab ga fg|
ef de B2 AB|GA FD E2 DE|G2 g2 Bc BA|1 G4 G2 gf:|2 G4 G4||

